; generated by Slic3r 1.0.0RC1 on 2014-02-13 at 15:11:03

; layer_height = 0.2
; perimeters = 2
; top_solid_layers = 3
; bottom_solid_layers = 3
; fill_density = 0.4
; perimeter_speed = 50
; infill_speed = 100
; travel_speed = 120
; nozzle_diameter = 0.5
; filament_diameter = 3
; extrusion_multiplier = 1
; perimeters extrusion width = 0.50mm
; infill extrusion width = 1.02mm
; solid infill extrusion width = 0.85mm
; top infill extrusion width = 0.85mm
; support material extrusion width = 0.50mm
; first layer extrusion width = 0.70mm

G21 ; set units to millimeters
M107
M190 S80 ; wait for bed temperature to be reached
M104 S200 ; set temperature
G28 Z0
G92 X0 Y0 Z0
M109 S200 ; wait for temperature to be reached
G90 ; use absolute coordinates
G92 E0
M82 ; use absolute distances for extrusion
G1 F1800.000 E-1.00000
G92 E0
G1 Z0.350 F7200.000
G1 X93.790 Y93.790 F7200.000
G1 E1.00000 F1800.000
G1 X94.800 Y92.960 E1.04253 F600.000
G1 X95.950 Y92.350 E1.08489
G1 X97.200 Y91.970 E1.12739
G1 X98.500 Y91.840 E1.16990
G1 X101.500 Y91.840 E1.26751
G1 X102.800 Y91.970 E1.31001
G1 X104.050 Y92.350 E1.35252
G1 X105.200 Y92.960 E1.39487
G1 X106.210 Y93.790 E1.43740
G1 X107.040 Y94.800 E1.47994
G1 X107.650 Y95.950 E1.52229
G1 X108.030 Y97.200 E1.56480
G1 X108.160 Y98.500 E1.60730
G1 X108.160 Y101.500 E1.70491
G1 X108.030 Y102.800 E1.74742
G1 X107.650 Y104.050 E1.78992
G1 X107.040 Y105.200 E1.83228
G1 X106.210 Y106.210 E1.87481
G1 X105.200 Y107.040 E1.91734
G1 X104.050 Y107.650 E1.95970
G1 X102.800 Y108.030 E2.00220
G1 X101.500 Y108.160 E2.04471
G1 X98.500 Y108.160 E2.14232
G1 X97.200 Y108.030 E2.18482
G1 X95.950 Y107.650 E2.22733
G1 X94.800 Y107.040 E2.26968
G1 X93.790 Y106.210 E2.31221
G1 X92.960 Y105.200 E2.35475
G1 X92.350 Y104.050 E2.39710
G1 X91.970 Y102.800 E2.43961
G1 X91.840 Y101.500 E2.48211
G1 X91.840 Y98.500 E2.57972
G1 X91.970 Y97.200 E2.62223
G1 X92.350 Y95.950 E2.66473
G1 X92.960 Y94.800 E2.70709
G1 X93.727 Y93.866 E2.74641
G1 F1800.000 E1.74641
G92 E0
G1 X98.664 Y98.522 F7200.000
G1 E1.00000 F1800.000
G1 X98.689 Y98.707 E1.00610 F600.000
G1 X98.993 Y98.976 E1.01930
G1 X99.079 Y99.085 E1.02384
G1 X99.321 Y99.002 E1.03216
G1 X99.650 Y98.996 E1.04285
G1 X100.636 Y98.996 E1.07492
G1 X100.915 Y99.079 E1.08440
G1 X101.024 Y98.993 E1.08893
G1 X101.293 Y98.689 E1.10214
G1 X101.478 Y98.664 E1.10824
G1 X100.915 Y99.079 F7200.000
G1 X100.998 Y99.321 E1.11656 F600.000
G1 X101.004 Y99.650 E1.12725
G1 X101.004 Y100.636 E1.15932
G1 X100.921 Y100.915 E1.16880
G1 X101.007 Y101.024 E1.17333
G1 X101.311 Y101.293 E1.18654
G1 X101.336 Y101.478 E1.19264
G1 X100.921 Y100.915 F7200.000
G1 X100.679 Y100.998 E1.20096 F600.000
G1 X100.350 Y101.004 E1.21165
G1 X99.364 Y101.004 E1.24372
G1 X99.085 Y100.921 E1.25320
G1 X98.522 Y101.336 F7200.000
G1 X98.707 Y101.311 E1.25929 F600.000
G1 X98.976 Y101.007 E1.27250
G1 X99.085 Y100.921 E1.27703
G1 X99.002 Y100.679 E1.28536
G1 X98.996 Y100.350 E1.29605
G1 X98.996 Y99.364 E1.32812
G1 X99.079 Y99.085 E1.33759
M106 S255
G1 F1800.000 E0.33759
G92 E0
G1 Z0.550 F7200.000
G1 X99.250 Y99.250 F7200.000
G1 E1.00000 F1800.000
G1 X100.750 Y99.250 E1.02122 F600.000
G1 X100.750 Y100.750 E1.04244
G1 X99.250 Y100.750 E1.06366
G1 X99.250 Y99.325 E1.08382
G1 X99.250 Y98.750 F7200.000
G1 X98.750 Y98.750 F7200.000
G1 X101.250 Y98.750 E1.11919 F600.000
G1 X101.250 Y101.250 E1.15456
G1 X98.750 Y101.250 E1.18992
G1 X98.750 Y98.825 E1.22423
G1 X99.183 Y99.000 F7200.000
G1 F1800.000 E0.22423
G92 E0
G1 Z0.750 F7200.000
G1 X99.250 Y99.250 F7200.000
G1 E1.00000 F1800.000
G1 X100.750 Y99.250 E1.02122 F600.000
G1 X100.750 Y100.750 E1.04244
G1 X99.250 Y100.750 E1.06366
G1 X99.250 Y99.325 E1.08382
G1 X99.250 Y98.750 F7200.000
G1 X98.750 Y98.750 F7200.000
G1 X101.250 Y98.750 E1.11919 F600.000
G1 X101.250 Y101.250 E1.15456
G1 X98.750 Y101.250 E1.18992
G1 X98.750 Y98.825 E1.22423
G1 X99.183 Y99.000 F7200.000
G1 F1800.000 E0.22423
G92 E0
G1 Z0.950 F7200.000
G1 X99.250 Y99.250 F7200.000
G1 E1.00000 F1800.000
G1 X100.750 Y99.250 E1.02122 F600.000
G1 X100.750 Y100.750 E1.04244
G1 X99.250 Y100.750 E1.06366
G1 X99.250 Y99.325 E1.08382
G1 X99.250 Y98.750 F7200.000
G1 X98.750 Y98.750 F7200.000
G1 X101.250 Y98.750 E1.11919 F600.000
G1 X101.250 Y101.250 E1.15456
G1 X98.750 Y101.250 E1.18992
G1 X98.750 Y98.825 E1.22423
G1 X99.183 Y99.000 F7200.000
G1 F1800.000 E0.22423
G92 E0
G1 Z1.150 F7200.000
G1 X100.750 Y100.750 F7200.000
G1 E1.00000 F1800.000
G1 X101.250 Y100.750 E1.00707 F600.000
G1 X101.250 Y101.250 E1.01415
G1 X100.750 Y101.250 E1.02122
G1 X100.750 Y100.825 E1.02723
G1 X101.183 Y101.000 F7200.000
G1 X99.250 Y101.250 F7200.000
G1 X98.750 Y101.250 E1.03431 F600.000
G1 X98.750 Y100.750 E1.04138
G1 X99.250 Y100.750 E1.04845
G1 X99.250 Y101.175 E1.05447
G1 X98.817 Y101.000 F7200.000
G1 X99.750 Y99.250 F7200.000
G1 X99.750 Y98.750 E1.06154 F600.000
G1 X100.250 Y98.750 E1.06861
G1 X100.250 Y99.250 E1.07569
G1 X99.825 Y99.250 E1.08170
G1 X100.000 Y98.817 F7200.000
G1 F1800.000 E0.08170
G92 E0
G1 Z1.350 F7200.000
G1 X100.750 Y100.750 F7200.000
G1 E1.00000 F1800.000
G1 X101.250 Y100.750 E1.00707 F600.000
G1 X101.250 Y101.250 E1.01415
G1 X100.750 Y101.250 E1.02122
G1 X100.750 Y100.825 E1.02723
G1 X101.183 Y101.000 F7200.000
G1 X99.250 Y101.250 F7200.000
G1 X98.750 Y101.250 E1.03431 F600.000
G1 X98.750 Y100.750 E1.04138
G1 X99.250 Y100.750 E1.04845
G1 X99.250 Y101.175 E1.05447
G1 X98.817 Y101.000 F7200.000
G1 X99.750 Y99.250 F7200.000
G1 X99.750 Y98.750 E1.06154 F600.000
G1 X100.250 Y98.750 E1.06861
G1 X100.250 Y99.250 E1.07569
G1 X99.825 Y99.250 E1.08170
G1 X100.000 Y98.817 F7200.000
G1 F1800.000 E0.08170
G92 E0
G1 Z1.550 F7200.000
G1 X100.750 Y100.750 F7200.000
G1 E1.00000 F1800.000
G1 X101.250 Y100.750 E1.00707 F600.000
G1 X101.250 Y101.250 E1.01415
G1 X100.750 Y101.250 E1.02122
G1 X100.750 Y100.825 E1.02723
G1 X101.183 Y101.000 F7200.000
G1 X99.250 Y101.250 F7200.000
G1 X98.750 Y101.250 E1.03431 F600.000
G1 X98.750 Y100.750 E1.04138
G1 X99.250 Y100.750 E1.04845
G1 X99.250 Y101.175 E1.05447
G1 X98.817 Y101.000 F7200.000
G1 X99.750 Y99.250 F7200.000
G1 X99.750 Y98.750 E1.06154 F600.000
G1 X100.250 Y98.750 E1.06861
G1 X100.250 Y99.250 E1.07569
G1 X99.825 Y99.250 E1.08170
G1 X100.000 Y98.817 F7200.000
G1 F1800.000 E0.08170
G92 E0
G1 Z1.750 F7200.000
G1 X100.750 Y100.750 F7200.000
G1 E1.00000 F1800.000
G1 X101.250 Y100.750 E1.00707 F600.000
G1 X101.250 Y101.250 E1.01415
G1 X100.750 Y101.250 E1.02122
G1 X100.750 Y100.825 E1.02723
G1 X101.183 Y101.000 F7200.000
G1 X99.250 Y101.250 F7200.000
G1 X98.750 Y101.250 E1.03431 F600.000
G1 X98.750 Y100.750 E1.04138
G1 X99.250 Y100.750 E1.04845
G1 X99.250 Y101.175 E1.05447
G1 X98.817 Y101.000 F7200.000
G1 X99.750 Y99.250 F7200.000
G1 X99.750 Y98.750 E1.06154 F600.000
G1 X100.250 Y98.750 E1.06861
G1 X100.250 Y99.250 E1.07569
G1 X99.825 Y99.250 E1.08170
G1 X100.000 Y98.817 F7200.000
G1 F1800.000 E0.08170
G92 E0
G1 Z1.950 F7200.000
G1 X100.750 Y100.750 F7200.000
G1 E1.00000 F1800.000
G1 X101.250 Y100.750 E1.00707 F600.000
G1 X101.250 Y101.250 E1.01415
G1 X100.750 Y101.250 E1.02122
G1 X100.750 Y100.825 E1.02723
G1 X101.183 Y101.000 F7200.000
G1 X99.250 Y101.250 F7200.000
G1 X98.750 Y101.250 E1.03431 F600.000
G1 X98.750 Y100.750 E1.04138
G1 X99.250 Y100.750 E1.04845
G1 X99.250 Y101.175 E1.05447
G1 X98.817 Y101.000 F7200.000
G1 X99.750 Y99.250 F7200.000
G1 X99.750 Y98.750 E1.06154 F600.000
G1 X100.250 Y98.750 E1.06861
G1 X100.250 Y99.250 E1.07569
G1 X99.825 Y99.250 E1.08170
G1 X100.000 Y98.817 F7200.000
G1 F1800.000 E0.08170
G92 E0
M107
M104 S0 ; turn off temperature
G91
G1 30
G90
G28 X0  ; home X axis
M84     ; disable motors
; filament used = 2.2mm (0.0cm3)
